X: 2
T: Fingal's Cave
T: Air, A Dorian
L: 1/16
M: C
K: A Dorian
|: E2G2| A8 B2A2G2A2| B4A4 A4e2d2| B4A2G2 e4d2B2| d4G4 G4E2G2| A8 B2A2G2A2| B4A4 A4e2d2| B4A2G2 e4d2B2| e4A4 A4:| 
B2d2| e4d2e2 g4e2g2| a4e2a2 g8| e4d2e2 g4f2g2| e2d2B2A2 G2A2B2d2| e4d2e2 g4e2g2| a4e2a2 g8| g2e2f2d2 g2e2d2B2| e4A4 A4B2d2| 
e4d2e2 g4e2g2| a4e2a2 g8| e4d2e2 g4f2g2| e2d2B2A2 G2A2B2G2| c4B2c2 d4c2d2| e4d2e2 a8| g2e2f2d2 g2e2d2B2| e4A4 A4|| 
D: Buddy MacMaster, Glencoe Hall, BM-91
